X:3
T:La Pernette
R:Chanson
O:France
B:Le livre des Chansons (Henri Davenson) n°3
Z:<anamnese@caramail.com> -- http://anamnese.fr.st
M:6/8
L:1/8
Q:1/4=130
K:Bb
z G2 | d3 c d e | d3 c z c | d z (=ef) z f | d3 {cd}c B c |
d3-d z G | d3 c d e | d3 c2 c | d2 c B2 A | G2 A B2 c |
[M:9/8] d2 B d3-d z B | [M:6/8] c2 d B2 A | G6 ||
W:La pernette se lève,
W:Tra la, la-la, la la, la la la la ;
W:La pernette se lève
W:Trois heures avant le jour (3x)
W:
W:Elle prend sa quenouillette avec son petit tour
W:A chaque tout qu'elle vire pousse un soupir d'amour.
W:Sa mère lui demande : "Pernette, qu'avez-vous ?
W:Avez-vous mal de tête, Ou bien le mal d'amour ?
W:- N'ai pas le mal de tête, Mais bien le mal d'amour.
W:- Ne pleurez pas, Pernette, Nous vous marierions.
W:Avec le fils d'un prince, Ou celui d'un baron.
W:- Je ne veux pas d'un prince, Ni d'un fils de baron.
W:Je veux mon ami Pierre, Qui est dans la prison.
W:- Tu n'auras pas ton Pierre, Nous le pendoulerons.
W:- Si vous pendoulez Pierre, Pendoulez-moi aussi.
W:Au chemin de Saint-Jacques, Enterrez-nous tous deux.
W:Couvrez Pierre de roses, Et moi de mille fleurs.
W:Les pèlerins qui passent, Se mettront à genoux.
W:Diront : ' Que Dieu ait l'âme, Des pauvres amoureux ;
W:L'un pour l'amour de l'autre, Ils sont morts tous les deux."

